X: 18
T: Zouzhe zhanzhe pansuan ni
%%abc-version 2.0
%%abcx-abcm2ps-target-version 5.9.1 (29 Sep 2008)
%%abc-creator hum2abc beta
%%abcx-conversion-date 2013/10/02 07:52:29
%%abc-edited-by Helmut Schaffrath
%%humdrum-veritas 2238987571
%%humdrum-veritas-data 61750
%%continueall 1
%%barnumbers 0
L: 1/16
M: 2/4
K: C
G2A4G E [I:setbarnb 1]| 
G2 A2 G2 E D | 
A,4G2 E C | 
A,8 | 
G2A4G E | 
G2 A2 G2 E D | 
A,4G2 E C | 
D8 |]  



